src/icons/artifact-registry.svg

<?xml version="1.0" encoding="UTF-8"?>
<svg xmlns="http://www.w3.org/2000/svg" xmlns:xlink="http://www.w3.org/1999/xlink" width="36.273998" height="32" viewBox="0 0 36.273998 32" version="1.1">
<g id="surface1">
<path style=" stroke:none;fill-rule:evenodd;fill:rgb(36.078432%,52.156866%,87.058824%);fill-opacity:1;" d="M 8.859375 0.730469 L 0.777344 5.394531 L 0.777344 26.683594 L 8.859375 31.347656 L 8.859375 27.304688 L 4.195312 24.664062 L 4.195312 7.414062 L 8.859375 4.769531 Z M 8.859375 0.730469 "/>
<path style=" stroke:none;fill-rule:evenodd;fill:rgb(20%,40.392157%,83.92157%);fill-opacity:1;" d="M 0.777344 9.433594 L 0.777344 22.644531 L 4.195312 24.664062 L 4.195312 7.414062 Z M 0.777344 9.433594 L 4.195312 8.65625 L 4.195312 7.414062 Z M 0.777344 9.433594 "/>
<path style=" stroke:none;fill-rule:evenodd;fill:rgb(36.078432%,52.156866%,87.058824%);fill-opacity:1;" d="M 27.507812 0.730469 L 27.507812 4.769531 L 32.171875 7.414062 L 32.171875 24.664062 L 27.507812 27.304688 L 27.507812 31.347656 L 35.589844 26.683594 L 35.589844 5.394531 Z M 27.507812 0.730469 "/>
<path style=" stroke:none;fill-rule:evenodd;fill:rgb(20%,40.392157%,83.92157%);fill-opacity:1;" d="M 32.171875 24.664062 L 35.589844 22.644531 L 35.589844 9.433594 L 32.171875 7.414062 Z M 32.171875 8.65625 L 35.589844 9.433594 L 32.171875 7.414062 Z M 32.171875 23.578125 L 32.171875 24.664062 L 35.589844 22.644531 Z M 32.171875 23.578125 "/>
<path style=" stroke:none;fill-rule:evenodd;fill:rgb(36.078432%,52.156866%,87.058824%);fill-opacity:1;" d="M 18.183594 5.546875 L 13.519531 8.035156 L 18.183594 10.523438 L 22.847656 8.035156 Z M 18.183594 5.546875 "/>
<path style=" stroke:none;fill-rule:evenodd;fill:rgb(20%,40.392157%,83.92157%);fill-opacity:1;" d="M 18.804688 16.273438 L 23.3125 13.785156 L 23.3125 8.96875 L 18.804688 11.453125 Z M 17.71875 11.453125 L 13.054688 8.96875 L 13.054688 13.785156 L 17.71875 16.273438 Z M 17.71875 11.453125 "/>
<path style=" stroke:none;fill-rule:evenodd;fill:rgb(36.078432%,52.156866%,87.058824%);fill-opacity:1;" d="M 12.835938 14.679688 L 8.332031 17.167969 L 12.835938 19.652344 L 17.1875 17.167969 Z M 12.835938 14.679688 "/>
<path style=" stroke:none;fill-rule:evenodd;fill:rgb(20%,40.392157%,83.92157%);fill-opacity:1;" d="M 13.148438 25.402344 L 17.65625 22.917969 L 17.65625 17.945312 L 13.148438 20.429688 Z M 12.371094 20.429688 L 7.863281 17.945312 L 7.863281 22.917969 L 12.371094 25.402344 Z M 12.371094 20.429688 "/>
<path style=" stroke:none;fill-rule:evenodd;fill:rgb(36.078432%,52.156866%,87.058824%);fill-opacity:1;" d="M 23.652344 14.679688 L 19.148438 17.167969 L 23.652344 19.652344 L 28.160156 17.167969 Z M 23.652344 14.679688 "/>
<path style=" stroke:none;fill-rule:evenodd;fill:rgb(20%,40.392157%,83.92157%);fill-opacity:1;" d="M 24.121094 25.402344 L 28.628906 22.917969 L 28.628906 17.945312 L 24.121094 20.429688 Z M 23.1875 20.429688 L 18.679688 17.945312 L 18.679688 22.917969 L 23.1875 25.402344 Z M 23.1875 20.429688 "/>
</g>
</svg>

<svg role="img" viewBox="0 0 36.274 32" xmlns="http://www.w3.org/2000/svg"><path d="M8.86.73.776 5.395v21.289l8.082 4.664v-4.043l-4.664-2.64V7.414L8.86 4.77Zm0 0" style="stroke:none;fill-rule:evenodd;fill:rgb(36.078432%,52.156866%,87.058824%);fill-opacity:1"/><path d="M.777 9.434v13.21l3.418 2.02V7.414Zm0 0 3.418-.778V7.414Zm0 0" style="stroke:none;fill-rule:evenodd;fill:rgb(20%,40.392157%,83.92157%);fill-opacity:1"/><path d="M27.508.73v4.04l4.664 2.644v17.25l-4.664 2.64v4.044l8.082-4.664V5.394Zm0 0" style="stroke:none;fill-rule:evenodd;fill:rgb(36.078432%,52.156866%,87.058824%);fill-opacity:1"/><path d="m32.172 24.664 3.418-2.02V9.435l-3.418-2.02Zm0-16.008 3.418.778-3.418-2.02Zm0 14.922v1.086l3.418-2.02Zm0 0" style="stroke:none;fill-rule:evenodd;fill:rgb(20%,40.392157%,83.92157%);fill-opacity:1"/><path d="M18.184 5.547 13.52 8.035l4.664 2.488 4.664-2.488Zm0 0" style="stroke:none;fill-rule:evenodd;fill:rgb(36.078432%,52.156866%,87.058824%);fill-opacity:1"/><path d="m18.805 16.273 4.508-2.488V8.97l-4.508 2.484Zm-1.086-4.82L13.055 8.97v4.816l4.664 2.488Zm0 0" style="stroke:none;fill-rule:evenodd;fill:rgb(20%,40.392157%,83.92157%);fill-opacity:1"/><path d="m12.836 14.68-4.504 2.488 4.504 2.484 4.352-2.484Zm0 0" style="stroke:none;fill-rule:evenodd;fill:rgb(36.078432%,52.156866%,87.058824%);fill-opacity:1"/><path d="m13.148 25.402 4.508-2.484v-4.973l-4.508 2.485Zm-.777-4.972-4.508-2.485v4.973l4.508 2.484Zm0 0" style="stroke:none;fill-rule:evenodd;fill:rgb(20%,40.392157%,83.92157%);fill-opacity:1"/><path d="m23.652 14.68-4.504 2.488 4.504 2.484 4.508-2.484Zm0 0" style="stroke:none;fill-rule:evenodd;fill:rgb(36.078432%,52.156866%,87.058824%);fill-opacity:1"/><path d="m24.121 25.402 4.508-2.484v-4.973L24.12 20.43Zm-.933-4.972-4.508-2.485v4.973l4.508 2.484Zm0 0" style="stroke:none;fill-rule:evenodd;fill:rgb(20%,40.392157%,83.92157%);fill-opacity:1"/></svg>
